!! Fux, Another first species counterpoint example (in A minor), reprinted in:
!! J.H. Lewis "Counterpoint" Novello (London) -1893, p. 7
**kern	**kern
*M2/2	*M2/2
=1	=1
1A	1A
=2	=2
1A	1c
=3	=3
1G	1B
=4	=4
1F	1d
=5	=5
1E	1c
=6	=6
1E	1e
=7	=7
1D	1f
=8	=8
1C	1e
=9	=9
1G	1d
=10	=10
1A	1c
=11	=11
1G#	1B
=12	=12
0A	0A
==	==
*-	*-
